!!!COM:	Bach, Johann Sebastian
!!!CDT:	1685/02/21/-1750/07/28/
!!!OTL@@DE:	Gelobet seist du, Jesu Christ
!!!SCT:	BWV 91/6
!!!PC#:	51
!!!AGN:	chorale
**kern	**kern	**kern	**kern
*ICvox	*ICvox	*ICvox	*ICvox
*Ibass	*Itenor	*Ialto	*Isoprn
*I"Bass	*I"Tenor	*I"Alto	*I"Soprano
*clefF4	*clefGv2	*clefG2	*clefG2
*k[f#]	*k[f#]	*k[f#]	*k[f#]
*G:	*G:	*G:	*G:
*M4/4	*M4/4	*M4/4	*M4/4
*met(c)	*met(c)	*met(c)	*met(c)
*MM100	*MM100	*MM100	*MM100
8GL	4B	4d	4g
8F#J	.	.	.
=1	=1	=1	=1
8EL	4c	4e	4g
8F#J	.	.	.
4G	4B	8dL	4g
.	.	8eJ	.
4D	8AL	4f#	4a
.	8dJ	.	.
8EL	4B	4e	4g
8DJ	.	.	.
=2	=2	=2	=2
4C	8eL	4g	4cc
.	8cJ	.	.
4GG	4B	8gL	4dd
.	.	8fJ	.
2C;	2G;	2e;	2cc;
=3	=3	=3	=3
4E	4e	8gL	8bL
.	.	8aJ	8ccJ
4D	4f	4b	4dd
4C	4g	8ccL	4ee
.	.	8bJ	.
4FF#	4d	4a	8ddL
.	.	.	8ccJ
=4	=4	=4	=4
8GGL	4d	4g	4b
8BBJ	.	.	.
4D	8dL	4f#	4a
.	8cJ	.	.
4GG;	4B;	4d;	4g;
4BB	4G	8dL	4g
.	.	8eJ	.
=5	=5	=5	=5
4AA	4A	4f#	4cc
8GGL	8dL	4g	8bL
8AAJ	8cJ	.	8ccJ
8BBL	8BL	4g	4dd
8CJ	8GJ	.	.
8DL	4d	8f#L	4a
8CJ	.	8eJ	.
=6	=6	=6	=6
8BBL	4d	8dL	8gL
8GGJ	.	8BJ	8f#J
4AA	8AL	4c#	4e
.	8GJ	.	.
4DD;	4F#;	4A;	4d;
8DL	8F#L	4A	4d
8EJ	8GJ	.	.
=7	=7	=7	=7
8F#L	8AL	4d	4a
8GJ	8BJ	.	.
8AL	8c#L	4c#	4a
8C#XJ	8eJ	.	.
8DL	4d	4f#	4a
8CJ	.	.	.
4BB	4d	4g	4b
=8	=8	=8	=8
8AAL	8eL	8aL	8ccnXL
8BB	8d	8gJ	8bJ
8C	8e	8gL	4a
8DJ	8dJ	8f#J	.
8EL	8dL	8eL	8gL
8F#J	8c	8aJ	8aJ
8GL	8B	8dL	4b
8GGJ	8c#J	8eJ	.
=9	=9	=9	=9
2D;	2d;	2f#;	2a;
8BBL	4d	8dL	4g
8AAJ	.	8eJ	.
4GG	4B	4f	4g
=10	=10	=10	=10
8CL	4G	2e	2g
16EL	.	.	.
16DJJ	.	.	.
8CL	4c	.	.
8CCJ	.	.	.
4GG;	4B;	4d;	4g;
==	==	==	==
*-	*-	*-	*-
!!!hum2abc: -Q ''
!!!title: @{PC#}. @{OTL@@DE}
!!!YOR1: 371 vierstimmige Choralges&auml;nge von Johann Sebastian Bach, 
!!!YOR2: 4th ed. by Alfred D&ouml;rffel (Leipzig: Breitkopf und H&auml;rtel, 
!!!YOR2: c.1875). 178 pp. Plate "V.A.10".  reprint: J.S. Bach, 371 Four-Part 
!!!YOR4: Chorales (New York: Associated Music Publishers, Inc., c.1940).
!!!SMS: B&H, 4th ed, Alfred D&ouml;rffel, c.1875, plate V.A.10
!!!EED:  Craig Stuart Sapp
!!!EEV:  2009/05/22
